src/lib/packages/icons/src/assets/filled/angles-right.svg

<svg width="24" height="24" viewBox="0 0 24 24" fill="none" xmlns="http://www.w3.org/2000/svg">
<path d="M19.7071 12.7071L12.7071 19.7071C12.5121 19.9021 12.256 20 12 20C11.744 20 11.488 19.9021 11.293 19.7071C10.902 19.3161 10.902 18.684 11.293 18.293L17.586 12L11.293 5.70707C10.902 5.31607 10.902 4.68401 11.293 4.29301C11.684 3.90201 12.3161 3.90201 12.7071 4.29301L19.7071 11.293C20.0981 11.684 20.0981 12.3161 19.7071 12.7071ZM12.7071 11.293L5.70707 4.29301C5.31607 3.90201 4.68401 3.90201 4.29301 4.29301C3.90201 4.68401 3.90201 5.31607 4.29301 5.70707L10.586 12L4.29301 18.293C3.90201 18.684 3.90201 19.3161 4.29301 19.7071C4.48801 19.9021 4.74404 20 5.00004 20C5.25604 20 5.51207 19.9021 5.70707 19.7071L12.7071 12.7071C13.0981 12.3161 13.0981 11.684 12.7071 11.293Z" fill="currentColor"/>
</svg>

<svg xmlns="http://www.w3.org/2000/svg" width="24" height="24" fill="none"><path fill="currentColor" d="m19.707 12.707-7 7a.997.997 0 0 1-1.414 0 .999.999 0 0 1 0-1.414L17.586 12l-6.293-6.293a.999.999 0 1 1 1.414-1.414l7 7a.999.999 0 0 1 0 1.414Zm-7-1.414-7-7a.999.999 0 1 0-1.414 1.414L10.586 12l-6.293 6.293a.999.999 0 1 0 1.414 1.414l7-7a.999.999 0 0 0 0-1.414Z"/></svg>
